pix_core/i/nosubcat.svg

<svg height="1em" preserveAspectRatio="xMinYMid meet" viewBox="0 0 448 512" xmlns="http://www.w3.org/2000/svg"><path d="m64 80c-8.8 0-16 7.2-16 16v320c0 8.8 7.2 16 16 16h320c8.8 0 16-7.2 16-16v-320c0-8.8-7.2-16-16-16zm-64 16c0-35.3 28.7-64 64-64h320c35.3 0 64 28.7 64 64v320c0 35.3-28.7 64-64 64h-320c-35.3 0-64-28.7-64-64zm200 248v-64h-64c-13.3 0-24-10.7-24-24s10.7-24 24-24h64v-64c0-13.3 10.7-24 24-24s24 10.7 24 24v64h64c13.3 0 24 10.7 24 24s-10.7 24-24 24h-64v64c0 13.3-10.7 24-24 24s-24-10.7-24-24z" fill="#fff"/></svg>

<svg xmlns="http://www.w3.org/2000/svg" height="1em" viewBox="0 0 448 512" preserveAspectRatio="xMinYMid meet"><!--! Font Awesome Free 6.4.2 by @fontawesome - https://fontawesome.com License - https://fontawesome.com/license (Commercial License) Copyright 2023 Fonticons, Inc. --><path fill="#fff" d="M64 80c-8.8 0-16 7.2-16 16V416c0 8.8 7.2 16 16 16H384c8.8 0 16-7.2 16-16V96c0-8.8-7.2-16-16-16H64zM0 96C0 60.7 28.7 32 64 32H384c35.3 0 64 28.7 64 64V416c0 35.3-28.7 64-64 64H64c-35.3 0-64-28.7-64-64V96zM200 344V280H136c-13.3 0-24-10.7-24-24s10.7-24 24-24h64V168c0-13.3 10.7-24 24-24s24 10.7 24 24v64h64c13.3 0 24 10.7 24 24s-10.7 24-24 24H248v64c0 13.3-10.7 24-24 24s-24-10.7-24-24z"/></svg>
